X:64
T: ES GING EIN MAIDLEIN ZARTE
N: Z0065
O: Europa, Mitteleuropa, Deutschland
R: Sagen - Lied, Romanze, Tod
M: 6/4
L: 1/4
K: E
E | =c2BA2B | =F3E2
B | e2=g=f2e | B3-B2
E | =c2BA2B | =F3E2
B | e2=g=f2e | B3-B2
B | =d2AB2d | B2A=G2
B | e2=g=f2e | d3B2
B | =G2B=F2E | E3-E2

@@@ Tune index: 9822
